hosting/assets/images/contacts/phoneIco.svg

<svg width="18" height="32" viewBox="0 0 18 32" fill="none" xmlns="http://www.w3.org/2000/svg">
<path d="M15.3967 0L2.60326 0C1.16485 0 0 1.24409 0 2.78035L0 29.2196C0 30.7559 1.16485 32 2.60326 32L15.3967 32C16.8352 32 18 30.7559 18 29.2196L18 2.78035C18 1.24409 16.8352 0 15.3967 0ZM7.1722 3.14557L10.8278 3.14557C11.0749 3.14557 11.2756 3.35999 11.2756 3.62389C11.2756 3.88778 11.0749 4.1022 10.8278 4.1022L7.1722 4.1022C6.92511 4.1022 6.72435 3.88778 6.72435 3.62389C6.72435 3.35999 6.92511 3.14557 7.1722 3.14557ZM9.0011 30.8313C7.95097 30.8313 7.10161 29.9218 7.10161 28.8026C7.10161 27.681 7.95318 26.7739 9.0011 26.7739C10.049 26.7739 10.9006 27.6834 10.9006 28.8026C10.9006 29.9218 10.049 30.8313 9.0011 30.8313ZM15.7652 24.7428C15.7652 25.2258 15.3989 25.617 14.9467 25.617L3.05552 25.617C2.60326 25.617 2.23704 25.2258 2.23704 24.7428L2.23704 7.24306C2.23704 6.76003 2.60326 6.3689 3.05552 6.3689L14.9467 6.3689C15.3989 6.3689 15.7652 6.76003 15.7652 7.24306L15.7652 24.7428Z" fill="url(#paint0_linear_81_853)"/>
<defs>
<linearGradient id="paint0_linear_81_853" x1="9" y1="0" x2="9" y2="32" gradientUnits="userSpaceOnUse">
<stop stop-color="#DEBF82"/>
<stop offset="1" stop-color="#B7975A"/>
</linearGradient>
</defs>
</svg>

<svg width="18" height="32" fill="none" xmlns="http://www.w3.org/2000/svg"><path d="M15.397 0H2.603C1.165 0 0 1.244 0 2.78v26.44C0 30.756 1.165 32 2.603 32h12.794C16.835 32 18 30.756 18 29.22V2.78C18 1.244 16.835 0 15.397 0zM7.172 3.146h3.656c.247 0 .448.214.448.478s-.201.478-.448.478H7.172c-.247 0-.448-.214-.448-.478s.201-.478.448-.478zm1.83 27.685c-1.051 0-1.9-.91-1.9-2.028 0-1.122.851-2.03 1.9-2.03 1.047 0 1.899.91 1.899 2.03 0 1.119-.852 2.028-1.9 2.028zm6.763-6.088c0 .483-.366.874-.818.874H3.056c-.453 0-.819-.391-.819-.874v-17.5c0-.483.366-.874.819-.874h11.89c.453 0 .82.391.82.874v17.5z" fill="url(#paint0_linear_81_853)"/><defs><linearGradient id="paint0_linear_81_853" x1="9" y1="0" x2="9" y2="32" gradientUnits="userSpaceOnUse"><stop stop-color="#DEBF82"/><stop offset="1" stop-color="#B7975A"/></linearGradient></defs></svg>
